public/space-button.svg

<?xml version="1.0" encoding="utf-8"?><svg version="1.1" id="Layer_1" xmlns="http://www.w3.org/2000/svg" xmlns:xlink="http://www.w3.org/1999/xlink" x="0px" y="0px" viewBox="0 0 122.88 54.99" style="enable-background:new 0 0 122.88 54.99" xml:space="preserve"><style type="text/css">.st0{fill-rule:evenodd;clip-rule:evenodd;}</style><g><path class="st0" d="M11.61,0h99.65c3.19,0,6.09,1.31,8.2,3.41c2.11,2.11,3.42,5.02,3.42,8.2v31.77c0,3.18-1.31,6.09-3.42,8.19 c-2.11,2.11-5.01,3.42-8.19,3.42H11.61c-3.18,0-6.09-1.31-8.2-3.42c-2.1-2.1-3.41-5-3.41-8.2V11.61c0-3.2,1.31-6.1,3.41-8.2 C5.51,1.31,8.42,0,11.61,0L11.61,0z M29.34,26.85l4.06-0.27c0.09,0.69,0.27,1.23,0.54,1.59c0.44,0.59,1.07,0.89,1.89,0.89 c0.61,0,1.08-0.15,1.41-0.45c0.33-0.3,0.5-0.65,0.5-1.05c0-0.38-0.15-0.72-0.47-1.02c-0.31-0.3-1.04-0.58-2.18-0.85 c-1.87-0.44-3.21-1.03-4-1.77c-0.8-0.74-1.21-1.67-1.21-2.82c0-0.75,0.21-1.46,0.62-2.12c0.41-0.67,1.03-1.19,1.86-1.58 c0.83-0.38,1.96-0.57,3.4-0.57c1.77,0,3.11,0.35,4.04,1.05c0.93,0.69,1.48,1.8,1.65,3.32l-4.02,0.25 c-0.11-0.66-0.33-1.15-0.67-1.45c-0.34-0.3-0.82-0.45-1.42-0.45c-0.5,0-0.87,0.11-1.12,0.33c-0.25,0.22-0.38,0.49-0.38,0.81 c0,0.23,0.1,0.44,0.31,0.63c0.2,0.19,0.67,0.37,1.43,0.54c1.87,0.43,3.2,0.86,4.01,1.29c0.81,0.44,1.4,0.97,1.76,1.62 c0.37,0.64,0.55,1.36,0.55,2.16c0,0.94-0.24,1.8-0.73,2.59c-0.49,0.79-1.17,1.39-2.06,1.8c-0.88,0.41-1.99,0.61-3.32,0.61 c-2.35,0-3.98-0.48-4.88-1.44C29.98,29.54,29.46,28.32,29.34,26.85L29.34,26.85z M43.79,35.71V21.08h3.6v1.56 c0.5-0.66,0.95-1.11,1.37-1.34c0.56-0.31,1.18-0.47,1.86-0.47c1.34,0,2.37,0.54,3.11,1.63c0.73,1.09,1.1,2.43,1.1,4.03 c0,1.77-0.4,3.11-1.2,4.04c-0.8,0.93-1.81,1.39-3.03,1.39c-0.59,0-1.13-0.11-1.62-0.32c-0.49-0.21-0.92-0.53-1.31-0.95v5.04H43.79 L43.79,35.71z M47.64,26.42c0,0.84,0.17,1.47,0.5,1.88c0.33,0.41,0.75,0.61,1.26,0.61c0.44,0,0.82-0.19,1.12-0.59 c0.3-0.39,0.45-1.06,0.45-1.99c0-0.86-0.16-1.5-0.47-1.9c-0.32-0.41-0.7-0.61-1.15-0.61c-0.49,0-0.89,0.2-1.22,0.61 C47.81,24.84,47.64,25.5,47.64,26.42L47.64,26.42z M60.17,24.52l-3.67-0.41c0.14-0.68,0.34-1.22,0.6-1.6 c0.26-0.39,0.63-0.73,1.13-1.01c0.35-0.21,0.83-0.37,1.45-0.48c0.61-0.11,1.28-0.17,2-0.17c1.15,0,2.07,0.07,2.77,0.2 c0.7,0.14,1.28,0.42,1.74,0.85c0.33,0.3,0.59,0.73,0.77,1.27c0.19,0.55,0.28,1.07,0.28,1.57v4.68c0,0.5,0.03,0.89,0.09,1.17 c0.06,0.28,0.19,0.64,0.39,1.08h-3.59c-0.14-0.27-0.24-0.48-0.28-0.62c-0.04-0.14-0.09-0.36-0.13-0.67c-0.5,0.51-1,0.87-1.5,1.09 c-0.68,0.29-1.47,0.44-2.37,0.44c-1.19,0-2.1-0.29-2.72-0.88c-0.62-0.59-0.93-1.31-0.93-2.17c0-0.81,0.22-1.47,0.67-1.99 c0.45-0.52,1.27-0.91,2.47-1.16c1.44-0.31,2.37-0.52,2.8-0.65c0.43-0.12,0.88-0.28,1.36-0.48c0-0.5-0.1-0.85-0.29-1.05 c-0.19-0.2-0.53-0.3-1.02-0.3c-0.63,0-1.1,0.11-1.41,0.32C60.51,23.74,60.32,24.05,60.17,24.52L60.17,24.52z M63.49,26.64 c-0.53,0.2-1.08,0.38-1.65,0.53c-0.78,0.22-1.27,0.44-1.48,0.65c-0.22,0.22-0.32,0.47-0.32,0.76c0,0.32,0.11,0.59,0.32,0.79 c0.21,0.2,0.52,0.31,0.93,0.31c0.43,0,0.83-0.11,1.2-0.33c0.37-0.22,0.63-0.49,0.78-0.81c0.15-0.32,0.23-0.74,0.23-1.25V26.64 L63.49,26.64z M77.01,27.54l3.65,0.43c-0.2,0.81-0.53,1.5-0.99,2.1c-0.46,0.59-1.05,1.05-1.76,1.38c-0.71,0.33-1.62,0.49-2.72,0.49 c-1.06,0-1.95-0.11-2.66-0.31c-0.7-0.21-1.31-0.55-1.82-1.02c-0.51-0.47-0.91-1.02-1.2-1.65c-0.29-0.63-0.43-1.47-0.43-2.52 c0-1.09,0.18-2,0.53-2.72c0.26-0.53,0.61-1.01,1.06-1.43c0.45-0.42,0.9-0.74,1.38-0.94c0.75-0.33,1.71-0.49,2.88-0.49 c1.64,0,2.88,0.31,3.74,0.93c0.86,0.62,1.46,1.52,1.81,2.71l-3.61,0.51c-0.11-0.45-0.32-0.79-0.62-1.02 c-0.3-0.23-0.7-0.34-1.21-0.34c-0.63,0-1.15,0.24-1.54,0.72c-0.39,0.48-0.59,1.21-0.59,2.19c0,0.87,0.2,1.53,0.59,1.98 c0.39,0.45,0.88,0.68,1.49,0.68c0.5,0,0.93-0.14,1.27-0.41C76.58,28.52,76.84,28.1,77.01,27.54L77.01,27.54z M93.54,27.4h-7.7 c0.07,0.65,0.24,1.14,0.5,1.46c0.37,0.46,0.86,0.69,1.45,0.69c0.38,0,0.74-0.1,1.08-0.3c0.21-0.13,0.43-0.35,0.67-0.66l3.78,0.37 c-0.58,1.06-1.28,1.83-2.1,2.29c-0.82,0.46-1.99,0.69-3.52,0.69c-1.33,0-2.37-0.2-3.13-0.6c-0.76-0.39-1.39-1.02-1.89-1.89 c-0.5-0.86-0.75-1.88-0.75-3.04c0-1.66,0.5-3,1.51-4.03c1-1.02,2.39-1.54,4.16-1.54c1.44,0,2.56,0.23,3.4,0.69 c0.83,0.46,1.46,1.12,1.9,2c0.43,0.87,0.65,2.01,0.65,3.41V27.4L93.54,27.4z M89.63,25.46c-0.07-0.79-0.28-1.35-0.6-1.7 c-0.33-0.34-0.75-0.51-1.28-0.51c-0.61,0-1.1,0.26-1.47,0.77c-0.23,0.32-0.38,0.8-0.44,1.43H89.63L89.63,25.46z M2.5,39.07 c0.43,1.63,1.29,3.09,2.45,4.25c1.71,1.71,4.07,2.77,6.66,2.77h99.66c0.1,0,0.21,0,0.31-0.01l0.64-0.04 c2.21-0.22,4.21-1.22,5.71-2.72c1.16-1.16,2.02-2.62,2.45-4.24V11.61c0-2.49-1.03-4.78-2.68-6.43c-1.65-1.65-3.93-2.68-6.43-2.68 H11.61c-2.5,0-4.78,1.03-6.43,2.68C3.53,6.83,2.5,9.11,2.5,11.61V39.07L2.5,39.07z"/></g></svg>

<svg width="123" height="55" viewBox="0 0 123 55" fill="none" xmlns="http://www.w3.org/2000/svg">
<g clip-path="url(#clip0_5_2)">
<path fill-rule="evenodd" clip-rule="evenodd" d="M11.61 0H111.26C114.45 0 117.35 1.31 119.46 3.41C121.57 5.52 122.88 8.43 122.88 11.61V43.38C122.88 46.56 121.57 49.47 119.46 51.57C117.35 53.68 114.45 54.99 111.27 54.99H11.61C8.43 54.99 5.52 53.68 3.41 51.57C1.31 49.47 0 46.57 0 43.37V11.61C0 8.41 1.31 5.51 3.41 3.41C5.51 1.31 8.42 0 11.61 0ZM29.34 26.85L33.4 26.58C33.49 27.27 33.67 27.81 33.94 28.17C34.38 28.76 35.01 29.06 35.83 29.06C36.44 29.06 36.91 28.91 37.24 28.61C37.57 28.31 37.74 27.96 37.74 27.56C37.74 27.18 37.59 26.84 37.27 26.54C36.96 26.24 36.23 25.96 35.09 25.69C33.22 25.25 31.88 24.66 31.09 23.92C30.29 23.18 29.88 22.25 29.88 21.1C29.88 20.35 30.09 19.64 30.5 18.98C30.91 18.31 31.53 17.79 32.36 17.4C33.19 17.02 34.32 16.83 35.76 16.83C37.53 16.83 38.87 17.18 39.8 17.88C40.73 18.57 41.28 19.68 41.45 21.2L37.43 21.45C37.32 20.79 37.1 20.3 36.76 20C36.42 19.7 35.94 19.55 35.34 19.55C34.84 19.55 34.47 19.66 34.22 19.88C33.97 20.1 33.84 20.37 33.84 20.69C33.84 20.92 33.94 21.13 34.15 21.32C34.35 21.51 34.82 21.69 35.58 21.86C37.45 22.29 38.78 22.72 39.59 23.15C40.4 23.59 40.99 24.12 41.35 24.77C41.72 25.41 41.9 26.13 41.9 26.93C41.9 27.87 41.66 28.73 41.17 29.52C40.68 30.31 40 30.91 39.11 31.32C38.23 31.73 37.12 31.93 35.79 31.93C33.44 31.93 31.81 31.45 30.91 30.49C29.98 29.54 29.46 28.32 29.34 26.85ZM43.79 35.71V21.08H47.39V22.64C47.89 21.98 48.34 21.53 48.76 21.3C49.32 20.99 49.94 20.83 50.62 20.83C51.96 20.83 52.99 21.37 53.73 22.46C54.46 23.55 54.83 24.89 54.83 26.49C54.83 28.26 54.43 29.6 53.63 30.53C52.83 31.46 51.82 31.92 50.6 31.92C50.01 31.92 49.47 31.81 48.98 31.6C48.49 31.39 48.06 31.07 47.67 30.65V35.69H43.79V35.71ZM47.64 26.42C47.64 27.26 47.81 27.89 48.14 28.3C48.47 28.71 48.89 28.91 49.4 28.91C49.84 28.91 50.22 28.72 50.52 28.32C50.82 27.93 50.97 27.26 50.97 26.33C50.97 25.47 50.81 24.83 50.5 24.43C50.18 24.02 49.8 23.82 49.35 23.82C48.86 23.82 48.46 24.02 48.13 24.43C47.81 24.84 47.64 25.5 47.64 26.42ZM60.17 24.52L56.5 24.11C56.64 23.43 56.84 22.89 57.1 22.51C57.36 22.12 57.73 21.78 58.23 21.5C58.58 21.29 59.06 21.13 59.68 21.02C60.29 20.91 60.96 20.85 61.68 20.85C62.83 20.85 63.75 20.92 64.45 21.05C65.15 21.19 65.73 21.47 66.19 21.9C66.52 22.2 66.78 22.63 66.96 23.17C67.15 23.72 67.24 24.24 67.24 24.74V29.42C67.24 29.92 67.27 30.31 67.33 30.59C67.39 30.87 67.52 31.23 67.72 31.67H64.13C63.99 31.4 63.89 31.19 63.85 31.05C63.81 30.91 63.76 30.69 63.72 30.38C63.22 30.89 62.72 31.25 62.22 31.47C61.54 31.76 60.75 31.91 59.85 31.91C58.66 31.91 57.75 31.62 57.13 31.03C56.51 30.44 56.2 29.72 56.2 28.86C56.2 28.05 56.42 27.39 56.87 26.87C57.32 26.35 58.14 25.96 59.34 25.71C60.78 25.4 61.71 25.19 62.14 25.06C62.57 24.94 63.02 24.78 63.5 24.58C63.5 24.08 63.4 23.73 63.21 23.53C63.02 23.33 62.68 23.23 62.19 23.23C61.56 23.23 61.09 23.34 60.78 23.55C60.51 23.74 60.32 24.05 60.17 24.52ZM63.49 26.64C62.96 26.84 62.41 27.02 61.84 27.17C61.06 27.39 60.57 27.61 60.36 27.82C60.14 28.04 60.04 28.29 60.04 28.58C60.04 28.9 60.15 29.17 60.36 29.37C60.57 29.57 60.88 29.68 61.29 29.68C61.72 29.68 62.12 29.57 62.49 29.35C62.86 29.13 63.12 28.86 63.27 28.54C63.42 28.22 63.5 27.8 63.5 27.29V26.64H63.49ZM77.01 27.54L80.66 27.97C80.46 28.78 80.13 29.47 79.67 30.07C79.21 30.66 78.62 31.12 77.91 31.45C77.2 31.78 76.29 31.94 75.19 31.94C74.13 31.94 73.24 31.83 72.53 31.63C71.83 31.42 71.22 31.08 70.71 30.61C70.2 30.14 69.8 29.59 69.51 28.96C69.22 28.33 69.08 27.49 69.08 26.44C69.08 25.35 69.26 24.44 69.61 23.72C69.87 23.19 70.22 22.71 70.67 22.29C71.12 21.87 71.57 21.55 72.05 21.35C72.8 21.02 73.76 20.86 74.93 20.86C76.57 20.86 77.81 21.17 78.67 21.79C79.53 22.41 80.13 23.31 80.48 24.5L76.87 25.01C76.76 24.56 76.55 24.22 76.25 23.99C75.95 23.76 75.55 23.65 75.04 23.65C74.41 23.65 73.89 23.89 73.5 24.37C73.11 24.85 72.91 25.58 72.91 26.56C72.91 27.43 73.11 28.09 73.5 28.54C73.89 28.99 74.38 29.22 74.99 29.22C75.49 29.22 75.92 29.08 76.26 28.81C76.58 28.52 76.84 28.1 77.01 27.54ZM93.54 27.4H85.84C85.91 28.05 86.08 28.54 86.34 28.86C86.71 29.32 87.2 29.55 87.79 29.55C88.17 29.55 88.53 29.45 88.87 29.25C89.08 29.12 89.3 28.9 89.54 28.59L93.32 28.96C92.74 30.02 92.04 30.79 91.22 31.25C90.4 31.71 89.23 31.94 87.7 31.94C86.37 31.94 85.33 31.74 84.57 31.34C83.81 30.95 83.18 30.32 82.68 29.45C82.18 28.59 81.93 27.57 81.93 26.41C81.93 24.75 82.43 23.41 83.44 22.38C84.44 21.36 85.83 20.84 87.6 20.84C89.04 20.84 90.16 21.07 91 21.53C91.83 21.99 92.46 22.65 92.9 23.53C93.33 24.4 93.55 25.54 93.55 26.94V27.4H93.54ZM89.63 25.46C89.56 24.67 89.35 24.11 89.03 23.76C88.7 23.42 88.28 23.25 87.75 23.25C87.14 23.25 86.65 23.51 86.28 24.02C86.05 24.34 85.9 24.82 85.84 25.45H89.63V25.46ZM2.5 39.07C2.93 40.7 3.79 42.16 4.95 43.32C6.66 45.03 9.02 46.09 11.61 46.09H111.27C111.37 46.09 111.48 46.09 111.58 46.08L112.22 46.04C114.43 45.82 116.43 44.82 117.93 43.32C119.09 42.16 119.95 40.7 120.38 39.08V11.61C120.38 9.12 119.35 6.83 117.7 5.18C116.05 3.53 113.77 2.5 111.27 2.5H11.61C9.11 2.5 6.83 3.53 5.18 5.18C3.53 6.83 2.5 9.11 2.5 11.61V39.07Z" fill="black"/>
</g>
<defs>
<clipPath id="clip0_5_2">
<rect width="122.88" height="54.99" fill="white"/>
</clipPath>
</defs>
</svg>
